X:1
T: The Bridge of Dee
C:J. Young
R:Strathspey
Q: 128
K:D
M:4/4
L:1/16
|:D2|FA3 A3F G3F E3D|GB3 A3G F3A d4|FA3 A3F G3F E3F|G3A, FA,3 EEE2 G2D2|
FA3 A3F G3F E3D|GB3 A3G F3A d4|FA3 A3F G3F E3F|G3A, FA,3 EEE2 G2B2|
Ad3 d2ef g3A f3A|g3e f3d ((3e2f2d2) ((3c2B2A2) |Fd3 d2ef g3f g3b|((3a2g2f2) ((3g2f2e2) fd3 d2cB|
Ad3 d2ef g3A f3A|g3A f3A ef3 g3b|((3a2^g2a2) ((3d2e2f2) ((3=g2f2g2) ((3B2c2d2) |1((3e2f2d2) ((3c2d2B2) ((3A2B2G2) ((3F2G2E2) :|2((3c2B2A2) ((3G2F2E2) D6||
